X: 1
T: Elanor Rigby
M: 6/8
L: 1/8
R: jig
K: Amix
GAB G2E | GAB dcB | cBA BAG | BAA A2E |
GAB =cBc | GAB G2E | GAB dcB | cBA BAG |
BAA A2E | GAB =cBc |AGA BGE | ~G3 AFD |
EFE E2D | GAB =c2B | AGA BGE | ~G3 AFD | EFE E2A |
Bee e2f | agf efd | BGD E2E | GBG AGA |
Bee e2f | agf efd | BGD E2E | GBG AGA |
Bee e2f | gfe ed=c | B2A BGE |GBG AGA |
Bee efg | agf efd | BGD E2E | BGE FDB, |
